static/cards/FrenchDeck/default/card_clubs_03.svg

<svg width="219" height="304" viewBox="0 0 219 304" fill="none" xmlns="http://www.w3.org/2000/svg">
<g filter="url(#filter0_d_18_631)">
<g clip-path="url(#clip0_18_631)">
<rect x="8" y="4" width="203" height="288" rx="10" fill="white"/>
<path d="M16.311 38.3945C16.311 37.4937 16.9316 36.853 17.8125 36.853C18.5132 36.853 18.9536 37.2134 19.4741 38.2344C20.5151 40.3765 22.5972 41.5776 25.3198 41.5776C28.9033 41.5776 31.1855 39.6157 31.1855 36.5527C31.1855 33.4897 28.8433 31.4277 25.3599 31.4277H22.8574C21.9365 31.4277 21.2559 30.7671 21.2559 29.9062C21.2559 29.0254 21.8965 28.4048 22.8574 28.4048H25.2197C28.1426 28.4048 30.2646 26.4229 30.2646 23.6802C30.2646 20.9375 28.2026 19.0957 25.1396 19.0957C22.7573 19.0957 20.9556 20.2769 20.1548 22.3389C19.7544 23.4399 19.2539 23.8604 18.4731 23.8604C17.5522 23.8604 16.9517 23.1997 16.9517 22.1987C16.9517 19.0957 20.2949 16.0928 25.2197 16.0928C30.2246 16.0928 33.7881 19.0757 33.7881 23.2397C33.7881 26.2627 31.5259 29.1455 28.7432 29.626V29.8262C32.1265 30.2065 34.709 33.1694 34.709 36.6128C34.709 41.2974 30.8252 44.5806 25.2598 44.5806C20.0947 44.5806 16.311 41.4575 16.311 38.3945Z" fill="#211C1D"/>
<path d="M24.0324 72C23.815 72 23.6387 71.826 23.6387 71.6115C23.6387 70.8912 24.9316 68.2013 25.1901 66.0959C25.2179 65.8695 24.886 65.7854 24.7639 65.9791C24.0982 67.0359 23.1904 68.515 20.9784 68.4633L20.9355 68.4647C20.9068 68.4656 20.8781 68.4666 20.8492 68.4666C18.4471 68.4666 16.5 66.3541 16.5 63.7483C16.5 61.1425 18.4471 59.03 20.8492 59.03C21.3182 59.03 21.7697 59.1108 22.1928 59.26C22.2915 59.2948 22.3921 59.1811 22.3431 59.0897C21.9682 58.3927 21.7531 57.5823 21.7531 56.717C21.7531 54.1483 23.625 52 26 52C28.375 52 30.2469 54.1483 30.2469 56.717C30.2469 57.5823 30.0318 58.3927 29.6569 59.0897C29.6079 59.1811 29.7085 59.2948 29.8072 59.26C30.2303 59.1108 30.6818 59.03 31.1508 59.03C33.5529 59.03 35.5 61.1425 35.5 63.7483C35.5 66.3541 33.5529 68.4666 31.1508 68.4666C31.1219 68.4666 31.0932 68.4656 31.0645 68.4647L31.0216 68.4633C28.8096 68.515 27.9018 67.0359 27.2361 65.9791C27.114 65.7854 26.7821 65.8695 26.8099 66.0959C27.0684 68.2013 28.3613 70.8913 28.3613 71.6114C28.3613 71.826 28.185 72 27.9676 72H24.0324Z" fill="#211C1D"/>
<path d="M202.689 257.605C202.689 258.506 202.068 259.147 201.188 259.147C200.487 259.147 200.046 258.787 199.526 257.766C198.485 255.624 196.403 254.422 193.68 254.422C190.097 254.422 187.814 256.384 187.814 259.447C187.814 262.51 190.157 264.572 193.64 264.572L196.143 264.572C197.063 264.572 197.744 265.233 197.744 266.094C197.744 266.975 197.104 267.595 196.143 267.595L193.78 267.595C190.857 267.595 188.735 269.577 188.735 272.32C188.735 275.062 190.797 276.904 193.86 276.904C196.243 276.904 198.044 275.723 198.845 273.661C199.246 272.56 199.746 272.14 200.527 272.14C201.448 272.14 202.048 272.8 202.048 273.801C202.048 276.904 198.705 279.907 193.78 279.907C188.775 279.907 185.212 276.924 185.212 272.76C185.212 269.737 187.474 266.854 190.257 266.374L190.257 266.174C186.874 265.793 184.291 262.831 184.291 259.387C184.291 254.703 188.175 251.419 193.74 251.419C198.905 251.419 202.689 254.542 202.689 257.605Z" fill="#211C1D"/>
<path d="M194.968 224C195.185 224 195.361 224.174 195.361 224.389C195.361 225.109 194.068 227.799 193.81 229.904C193.782 230.131 194.114 230.215 194.236 230.021C194.902 228.964 195.81 227.485 198.022 227.537L198.065 227.535C198.093 227.534 198.122 227.533 198.151 227.533C200.553 227.533 202.5 229.646 202.5 232.252C202.5 234.858 200.553 236.97 198.151 236.97C197.682 236.97 197.23 236.889 196.807 236.74C196.708 236.705 196.608 236.819 196.657 236.91C197.032 237.607 197.247 238.418 197.247 239.283C197.247 241.852 195.375 244 193 244C190.625 244 188.753 241.852 188.753 239.283C188.753 238.418 188.968 237.607 189.343 236.91C189.392 236.819 189.292 236.705 189.193 236.74C188.77 236.889 188.318 236.97 187.849 236.97C185.447 236.97 183.5 234.858 183.5 232.252C183.5 229.646 185.447 227.533 187.849 227.533C187.878 227.533 187.907 227.534 187.935 227.535L187.978 227.537C190.19 227.485 191.098 228.964 191.764 230.021C191.886 230.215 192.218 230.131 192.19 229.904C191.932 227.799 190.639 225.109 190.639 224.389C190.639 224.174 190.815 224 191.032 224L194.968 224Z" fill="#211C1D"/>
<path d="M104.84 76C104.325 76 103.908 75.5825 103.908 75.0675C103.908 73.339 106.97 66.8831 107.582 61.8301C107.648 61.2867 106.862 61.0849 106.573 61.5498C104.996 64.0863 102.846 67.6359 97.6068 67.512L97.5051 67.5152C97.4372 67.5176 97.3693 67.5199 97.3008 67.5199C91.6117 67.5199 87 62.4499 87 56.1959C87 49.9419 91.6117 44.8719 97.3008 44.8719C98.4114 44.8719 99.4808 45.066 100.483 45.4239C100.717 45.5074 100.955 45.2346 100.839 45.0153C99.951 43.3424 99.4416 41.3975 99.4416 39.3209C99.4416 33.156 103.875 28 109.5 28C115.125 28 119.558 33.156 119.558 39.3209C119.558 41.3975 119.049 43.3424 118.161 45.0153C118.045 45.2346 118.283 45.5074 118.517 45.4239C119.519 45.066 120.589 44.8719 121.699 44.8719C127.388 44.8719 132 49.9419 132 56.1959C132 62.4499 127.388 67.5199 121.699 67.5199C121.631 67.5199 121.563 67.5176 121.495 67.5152L121.393 67.512C116.154 67.6359 114.004 64.0863 112.427 61.5498C112.138 61.0849 111.352 61.2867 111.418 61.8301C112.03 66.883 115.092 73.339 115.092 75.0675C115.092 75.5825 114.675 76 114.16 76H104.84Z" fill="#211C1D"/>
<path d="M104.84 172C104.325 172 103.908 171.582 103.908 171.067C103.908 169.339 106.97 162.883 107.582 157.83C107.648 157.287 106.862 157.085 106.573 157.55C104.996 160.086 102.846 163.636 97.6068 163.512L97.5051 163.515C97.4372 163.518 97.3693 163.52 97.3008 163.52C91.6117 163.52 87 158.45 87 152.196C87 145.942 91.6117 140.872 97.3008 140.872C98.4114 140.872 99.4808 141.066 100.483 141.424C100.717 141.507 100.955 141.235 100.839 141.015C99.951 139.342 99.4416 137.397 99.4416 135.321C99.4416 129.156 103.875 124 109.5 124C115.125 124 119.558 129.156 119.558 135.321C119.558 137.397 119.049 139.342 118.161 141.015C118.045 141.235 118.283 141.507 118.517 141.424C119.519 141.066 120.589 140.872 121.699 140.872C127.388 140.872 132 145.942 132 152.196C132 158.45 127.388 163.52 121.699 163.52C121.631 163.52 121.563 163.518 121.495 163.515L121.393 163.512C116.154 163.636 114.004 160.086 112.427 157.55C112.138 157.085 111.352 157.287 111.418 157.83C112.03 162.883 115.092 169.339 115.092 171.067C115.092 171.582 114.675 172 114.16 172H104.84Z" fill="#211C1D"/>
<path d="M104.84 220C104.325 220 103.908 220.418 103.908 220.933C103.908 222.661 106.97 229.117 107.582 234.17C107.648 234.713 106.862 234.915 106.573 234.45C104.996 231.914 102.846 228.364 97.6068 228.488L97.5051 228.485C97.4372 228.482 97.3693 228.48 97.3008 228.48C91.6117 228.48 87 233.55 87 239.804C87 246.058 91.6117 251.128 97.3008 251.128C98.4114 251.128 99.4808 250.934 100.483 250.576C100.717 250.493 100.955 250.765 100.839 250.985C99.951 252.658 99.4416 254.603 99.4416 256.679C99.4416 262.844 103.875 268 109.5 268C115.125 268 119.558 262.844 119.558 256.679C119.558 254.603 119.049 252.658 118.161 250.985C118.045 250.765 118.283 250.493 118.517 250.576C119.519 250.934 120.589 251.128 121.699 251.128C127.388 251.128 132 246.058 132 239.804C132 233.55 127.388 228.48 121.699 228.48C121.631 228.48 121.563 228.482 121.495 228.485L121.393 228.488C116.154 228.364 114.004 231.914 112.427 234.45C112.138 234.915 111.352 234.713 111.418 234.17C112.03 229.117 115.092 222.661 115.092 220.933C115.092 220.418 114.675 220 114.16 220H104.84Z" fill="#211C1D"/>
</g>
</g>
<defs>
<filter id="filter0_d_18_631" x="0" y="0" width="219" height="304" filterUnits="userSpaceOnUse" color-interpolation-filters="sRGB">
<feFlood flood-opacity="0" result="BackgroundImageFix"/>
<feColorMatrix in="SourceAlpha" type="matrix" values="0 0 0 0 0 0 0 0 0 0 0 0 0 0 0 0 0 0 127 0" result="hardAlpha"/>
<feOffset dy="4"/>
<feGaussianBlur stdDeviation="4"/>
<feComposite in2="hardAlpha" operator="out"/>
<feColorMatrix type="matrix" values="0 0 0 0 0.614771 0 0 0 0 0.70094 0 0 0 0 0.806257 0 0 0 1 0"/>
<feBlend mode="normal" in2="BackgroundImageFix" result="effect1_dropShadow_18_631"/>
<feBlend mode="normal" in="SourceGraphic" in2="effect1_dropShadow_18_631" result="shape"/>
</filter>
<clipPath id="clip0_18_631">
<rect x="8" y="4" width="203" height="288" rx="10" fill="white"/>
</clipPath>
</defs>
</svg>

<svg xmlns="http://www.w3.org/2000/svg" width="219" height="304" fill="none" viewBox="0 0 219 304"><g filter="url(#a)"><g clip-path="url(#b)"><rect width="203" height="288" x="8" y="4" fill="#fff" rx="10"/><path fill="#211c1d" d="M16.311 38.395c0-.901.62-1.542 1.502-1.542.7 0 1.14.36 1.661 1.381 1.041 2.142 3.123 3.344 5.846 3.344 3.583 0 5.866-1.962 5.866-5.025s-2.343-5.125-5.826-5.125h-2.503c-.92 0-1.601-.66-1.601-1.522 0-.88.64-1.501 1.601-1.501h2.363c2.923 0 5.045-1.982 5.045-4.725s-2.062-4.584-5.125-4.584c-2.383 0-4.184 1.18-4.985 3.243-.4 1.1-.901 1.521-1.682 1.521-.92 0-1.521-.66-1.521-1.661 0-3.103 3.343-6.106 8.268-6.106 5.005 0 8.568 2.983 8.568 7.147 0 3.023-2.262 5.906-5.045 6.386v.2c3.384.38 5.966 3.343 5.966 6.787 0 4.684-3.884 7.968-9.45 7.968-5.164 0-8.948-3.123-8.948-6.187M24.032 72a.39.39 0 0 1-.393-.388c0-.72 1.293-3.41 1.551-5.516.028-.227-.304-.31-.426-.117-.666 1.057-1.574 2.536-3.786 2.484l-.043.002-.086.002c-2.402 0-4.349-2.113-4.349-4.719 0-2.605 1.947-4.718 4.35-4.718.468 0 .92.08 1.343.23.098.035.2-.079.15-.17a5 5 0 0 1-.59-2.373C21.753 54.148 23.625 52 26 52s4.247 2.148 4.247 4.717a5 5 0 0 1-.59 2.373c-.05.091.052.205.15.17a4 4 0 0 1 1.344-.23c2.402 0 4.349 2.112 4.349 4.718s-1.947 4.719-4.35 4.719l-.085-.002-.043-.002c-2.212.052-3.12-1.427-3.786-2.484-.122-.194-.454-.11-.426.117.258 2.105 1.551 4.795 1.551 5.515a.39.39 0 0 1-.393.389zM202.689 257.605c0 .901-.621 1.542-1.501 1.542-.701 0-1.142-.36-1.662-1.381-1.041-2.142-3.123-3.344-5.846-3.344-3.583 0-5.866 1.962-5.866 5.025s2.343 5.125 5.826 5.125h2.503c.92 0 1.601.661 1.601 1.522 0 .881-.64 1.501-1.601 1.501h-2.363c-2.923 0-5.045 1.982-5.045 4.725s2.062 4.584 5.125 4.584c2.383 0 4.184-1.181 4.985-3.243.401-1.101.901-1.521 1.682-1.521.921 0 1.521.66 1.521 1.661 0 3.103-3.343 6.106-8.268 6.106-5.005 0-8.568-2.983-8.568-7.147 0-3.023 2.262-5.906 5.045-6.386v-.2c-3.383-.381-5.966-3.343-5.966-6.787 0-4.684 3.884-7.968 9.449-7.968 5.165 0 8.949 3.123 8.949 6.186M194.968 224a.39.39 0 0 1 .393.389c0 .72-1.293 3.41-1.551 5.515-.028.227.304.311.426.117.666-1.057 1.574-2.536 3.786-2.484l.043-.002.086-.002c2.402 0 4.349 2.113 4.349 4.719s-1.947 4.718-4.349 4.718c-.469 0-.921-.081-1.344-.23-.099-.035-.199.079-.15.17.375.697.59 1.508.59 2.373 0 2.569-1.872 4.717-4.247 4.717s-4.247-2.148-4.247-4.717c0-.865.215-1.676.59-2.373.049-.091-.051-.205-.15-.17-.423.149-.875.23-1.344.23-2.402 0-4.349-2.112-4.349-4.718s1.947-4.719 4.349-4.719l.086.002.043.002c2.212-.052 3.12 1.427 3.786 2.484.122.194.454.11.426-.117-.258-2.105-1.551-4.795-1.551-5.515a.39.39 0 0 1 .393-.389zM104.84 76a.93.93 0 0 1-.932-.933c0-1.728 3.062-8.184 3.674-13.237.066-.543-.72-.745-1.009-.28-1.577 2.536-3.727 6.086-8.966 5.962l-.102.003-.204.005C91.61 67.52 87 62.45 87 56.196s4.612-11.324 10.3-11.324c1.111 0 2.18.194 3.183.552.234.083.472-.19.356-.409a12.1 12.1 0 0 1-1.397-5.694C99.442 33.156 103.875 28 109.5 28s10.058 5.156 10.058 11.32c0 2.078-.509 4.022-1.397 5.695-.116.22.122.492.356.409a9.4 9.4 0 0 1 3.182-.552c5.689 0 10.301 5.07 10.301 11.324s-4.612 11.324-10.301 11.324q-.102 0-.204-.005l-.102-.003c-5.239.124-7.389-3.426-8.966-5.962-.289-.465-1.075-.263-1.009.28.612 5.053 3.674 11.509 3.674 13.237a.93.93 0 0 1-.932.933zM104.84 172a.933.933 0 0 1-.932-.933c0-1.728 3.062-8.184 3.674-13.237.066-.543-.72-.745-1.009-.28-1.577 2.536-3.727 6.086-8.966 5.962l-.102.003a5 5 0 0 1-.204.005c-5.69 0-10.301-5.07-10.301-11.324s4.612-11.324 10.3-11.324c1.111 0 2.18.194 3.183.552.234.083.472-.189.356-.409a12.1 12.1 0 0 1-1.397-5.694c0-6.165 4.433-11.321 10.058-11.321s10.058 5.156 10.058 11.321c0 2.076-.509 4.021-1.397 5.694-.116.22.122.492.356.409a9.4 9.4 0 0 1 3.182-.552c5.689 0 10.301 5.07 10.301 11.324s-4.612 11.324-10.301 11.324q-.102 0-.204-.005l-.102-.003c-5.239.124-7.389-3.426-8.966-5.962-.289-.465-1.075-.263-1.009.28.612 5.053 3.674 11.509 3.674 13.237a.933.933 0 0 1-.932.933zM104.84 220a.933.933 0 0 0-.932.933c0 1.728 3.062 8.184 3.674 13.237.066.543-.72.745-1.009.28-1.577-2.536-3.727-6.086-8.966-5.962l-.102-.003a5 5 0 0 0-.204-.005c-5.69 0-10.301 5.07-10.301 11.324s4.612 11.324 10.3 11.324c1.111 0 2.18-.194 3.183-.552.234-.083.472.189.356.409a12.1 12.1 0 0 0-1.397 5.694c0 6.165 4.433 11.321 10.058 11.321s10.058-5.156 10.058-11.321c0-2.076-.509-4.021-1.397-5.694-.116-.22.122-.492.356-.409a9.4 9.4 0 0 0 3.182.552c5.689 0 10.301-5.07 10.301-11.324s-4.612-11.324-10.301-11.324q-.102 0-.204.005l-.102.003c-5.239-.124-7.389 3.426-8.966 5.962-.289.465-1.075.263-1.009-.28.612-5.053 3.674-11.509 3.674-13.237a.933.933 0 0 0-.932-.933z"/></g></g><defs><clipPath id="b"><rect width="203" height="288" x="8" y="4" fill="#fff" rx="10"/></clipPath><filter id="a" width="219" height="304" x="0" y="0" color-interpolation-filters="sRGB" filterUnits="userSpaceOnUse"><feFlood flood-opacity="0" result="BackgroundImageFix"/><feColorMatrix in="SourceAlpha" result="hardAlpha" values="0 0 0 0 0 0 0 0 0 0 0 0 0 0 0 0 0 0 127 0"/><feOffset dy="4"/><feGaussianBlur stdDeviation="4"/><feComposite in2="hardAlpha" operator="out"/><feColorMatrix values="0 0 0 0 0.614771 0 0 0 0 0.70094 0 0 0 0 0.806257 0 0 0 1 0"/><feBlend in2="BackgroundImageFix" result="effect1_dropShadow_18_631"/><feBlend in="SourceGraphic" in2="effect1_dropShadow_18_631" result="shape"/></filter></defs></svg>
